X:7
T:Green Man Hornpipe
B:Walsh
M:3/2
L:1/8
N:
K:G
g4 d3 c B4| edcB AGFE D4| dcBA GFED C4| AGFE DCB,A, G,4|\
G,B,CG, A,CB,A, B,DCB,|CEDC DFEG F4| GBAG AcBA BdcB|\
 cedf cgfa g4:: b4  a3 g f4| g2 ba gfed ^c4|\
dBAG Fd^cB AGFE| F2 d2E2 ^c2 d4| GBdc  BAG=F F2 E2| Fced cBAG G2 ^F2|\
gdcB ecBA dBAG| cABG D2 F2 G4:|
